res/luts/Spooky.CUBE
#Created by: Adobe Photoshop Export Color Lookup Plugin
TITLE "Spooky"
#LUT size
LUT_3D_SIZE 8
#data domain
#LUT data points
DOMAIN_MIN 0.000000 0.000000 0.000000
DOMAIN_MAX 0.903226 0.903226 0.903226
0.000000 0.000000 0.000000
0.131653 0.000000 0.000000
0.263550 0.000000 0.000000
0.396149 0.000000 0.000000
0.529205 0.000000 0.000000
0.662598 0.000000 0.000000
0.796234 0.000000 0.000000
0.930145 0.000000 0.000000
0.000000 0.039856 0.000000
0.130615 0.034363 0.000000
0.263031 0.020203 0.000000
0.395844 0.000000 0.000000
0.528992 0.000000 0.000000
0.662445 0.000000 0.000000
0.796112 0.000000 0.000000
0.930054 0.000000 0.000000
0.000000 0.118469 0.000000
0.127045 0.116150 0.000000
0.261383 0.109833 0.000000
0.394806 0.097443 0.000000
0.528290 0.075409 0.000000
0.661926 0.031860 0.000000
0.795685 0.000000 0.000000
0.929718 0.000000 0.000000
0.000000 0.224976 0.000000
0.116547 0.223785 0.000000
0.256683 0.220673 0.000000
0.391968 0.214874 0.000000
0.526306 0.205750 0.000000
0.660431 0.192322 0.000000
0.794525 0.173218 0.000000
0.928741 0.145630 0.000000
0.000000 0.354828 0.000000
0.089722 0.354126 0.000000
0.246033 0.352295 0.000000
0.385620 0.348999 0.000000
0.521942 0.343872 0.000000
0.657196 0.336639 0.000000
0.791962 0.326965 0.000000
0.926666 0.314392 0.000000
0.000000 0.505341 0.000000
0.006348 0.504883 0.000000
0.224609 0.503723 0.000000
0.373444 0.501587 0.000000
0.513672 0.498352 0.000000
0.651062 0.493805 0.000000
0.787170 0.487823 0.000000
0.922760 0.480225 0.000000
0.000000 0.674713 0.000000
0.000000 0.674408 0.000000
0.182404 0.673615 0.000000
0.351868 0.672150 0.000000
0.499420 0.669922 0.000000
0.640594 0.666809 0.000000
0.779022 0.662750 0.000000
0.916168 0.657654 0.000000
0.000000 0.861603 0.000000
0.000000 0.861389 0.000000
0.079071 0.860809 0.000000
0.314819 0.859741 0.000000
0.476227 0.858124 0.000000
0.623932 0.855896 0.000000
0.766174 0.852966 0.000000
0.905823 0.849304 0.000000
0.000000 0.000000 0.289276
0.131653 0.000000 0.288391
0.263550 0.000000 0.286041
0.396149 0.000000 0.281769
0.529205 0.000000 0.275146
0.662598 0.000000 0.265686
0.796234 0.000000 0.252716
0.930145 0.000000 0.235413
0.000000 0.039856 0.288818
0.127777 0.023621 0.289154
0.263824 0.009064 0.286774
0.396576 0.000000 0.280914
0.529480 0.000000 0.273499
0.662750 0.000000 0.263580
0.796295 0.000000 0.250305
0.930115 0.000000 0.232635
0.000000 0.118469 0.287323
0.112427 0.098846 0.290588
0.263672 0.090790 0.288055
0.397522 0.075684 0.278046
0.530121 0.043365 0.268341
0.663147 0.000000 0.256989
0.796417 0.000000 0.242523
0.930054 0.000000 0.223694
0.000000 0.224976 0.283142
0.096283 0.222504 0.286438
0.256378 0.209595 0.285278
0.396576 0.202271 0.270569
0.530396 0.184296 0.256195
0.663544 0.162354 0.240356
0.796539 0.133789 0.221924
0.929749 0.090912 0.198853
0.000000 0.354828 0.273712
0.056671 0.357422 0.271240
0.226685 0.358459 0.258118
0.390747 0.349609 0.252960
0.526337 0.337219 0.242737
0.661041 0.322266 0.222015
0.794647 0.306396 0.198547
0.928040 0.288696 0.169586
0.000000 0.505341 0.254974
0.000000 0.506989 0.246918
0.187622 0.509460 0.222107
0.364410 0.507690 0.209534
0.519470 0.502686 0.198364
0.654663 0.490631 0.196533
0.789734 0.479553 0.169617
0.924072 0.468201 0.134521
0.000000 0.674713 0.219391
0.000000 0.675598 0.207062
0.123047 0.677307 0.170105
0.330994 0.676270 0.152283
0.493256 0.673920 0.137970
0.643127 0.670654 0.115295
0.781647 0.661255 0.084564
0.917358 0.652710 0.032898
0.000000 0.861603 0.145813
0.000000 0.861877 0.123840
0.000000 0.862396 0.034058
0.284363 0.861542 0.000000
0.462433 0.859894 0.000000
0.617981 0.857574 0.000000
0.765320 0.854584 0.000000
0.906921 0.849030 0.000000
0.000000 0.000000 0.446075
0.131653 0.000000 0.445557
0.263550 0.000000 0.444183
0.396149 0.000000 0.441711
0.529205 0.000000 0.437897
0.662598 0.000000 0.432556
0.796234 0.000000 0.425476
0.930145 0.000000 0.416443
0.000000 0.039856 0.445801
0.126801 0.023315 0.445984
0.262115 0.008942 0.444611
0.396179 0.000000 0.442108
0.529480 0.000000 0.437653
0.662750 0.000000 0.431793
0.796295 0.000000 0.424438
0.930115 0.000000 0.415192
0.000000 0.118469 0.444946
0.108948 0.095642 0.447113
0.257050 0.087738 0.445709
0.396027 0.071655 0.443146
0.530182 0.041077 0.436768
0.663147 0.000000 0.429382
0.796448 0.000000 0.421112
0.930054 0.000000 0.411285
0.000000 0.224976 0.442505
0.092773 0.216034 0.444946
0.239838 0.195526 0.447021
0.393829 0.188171 0.444275
0.530975 0.178558 0.433655
0.663666 0.159790 0.423004
0.796570 0.132355 0.412506
0.929749 0.089874 0.400940
0.000000 0.354828 0.437073
0.055725 0.353882 0.439301
0.219666 0.348175 0.442047
0.381622 0.334564 0.439758
0.527771 0.330383 0.425812
0.662231 0.315582 0.412292
0.795654 0.297302 0.397766
0.928619 0.276581 0.382294
0.000000 0.505341 0.426666
0.000000 0.506989 0.426178
0.187622 0.509460 0.423126
0.351135 0.508881 0.412689
0.520081 0.501434 0.400543
0.655365 0.489380 0.401520
0.791077 0.474854 0.383575
0.925049 0.459106 0.364044
0.000000 0.674713 0.408508
0.000000 0.675598 0.404724
0.123047 0.677307 0.394287
0.309265 0.678589 0.373871
0.482605 0.676849 0.360504
0.644104 0.673370 0.352814
0.783386 0.659851 0.351685
0.918243 0.649078 0.340942
0.000000 0.861603 0.378204
0.000000 0.861877 0.372345
0.000000 0.862396 0.356812
0.253693 0.862885 0.328247
0.443359 0.861725 0.311096
0.609741 0.859344 0.302368
0.763794 0.856262 0.290588
0.908081 0.848480 0.273590
0.000000 0.000000 0.575043
0.131653 0.000000 0.574646
0.263550 0.000000 0.573669
0.396149 0.000000 0.571869
0.529205 0.000000 0.569092
0.662598 0.000000 0.565277
0.796234 0.000000 0.560272
0.930145 0.000000 0.553894
0.000000 0.039856 0.574829
0.126495 0.023224 0.574921
0.261597 0.008911 0.573914
0.395447 0.000000 0.572113
0.529266 0.000000 0.569336
0.662750 0.000000 0.565125
0.796295 0.000000 0.559753
0.930115 0.000000 0.553192
0.000000 0.118469 0.574219
0.107880 0.094696 0.575684
0.255066 0.086823 0.574646
0.393127 0.070862 0.572815
0.529388 0.038940 0.570007
0.663177 0.000000 0.564514
0.796448 0.000000 0.558105
0.930054 0.000000 0.550903
0.000000 0.224976 0.572449
0.091736 0.214020 0.574097
0.234558 0.191040 0.576019
0.385742 0.183777 0.574097
0.528961 0.172150 0.571198
0.663849 0.156464 0.562592
0.796631 0.130585 0.553680
0.929779 0.088593 0.544830
0.000000 0.354828 0.568512
0.054932 0.350891 0.570099
0.213501 0.339172 0.572968
0.365997 0.320618 0.573792
0.524994 0.314148 0.570679
0.663177 0.307983 0.557404
0.795929 0.293518 0.545166
0.928711 0.274414 0.533539
0.000000 0.505341 0.561096
0.000000 0.505615 0.562561
0.185791 0.505157 0.565033
0.345428 0.500946 0.565918
0.509125 0.489624 0.560699
0.656067 0.485291 0.548096
0.791534 0.471985 0.535278
0.925415 0.455444 0.520447
0.000000 0.674713 0.548401
0.000000 0.675598 0.547485
0.123047 0.677307 0.544586
0.309265 0.678589 0.538025
0.473541 0.677246 0.526215
0.642273 0.673187 0.517883
0.782379 0.660980 0.523376
0.918518 0.648315 0.507141
0.000000 0.861603 0.527924
0.000000 0.861877 0.524963
0.000000 0.862396 0.517273
0.253693 0.862885 0.503601
0.429535 0.862671 0.484406
0.601166 0.860535 0.474304
0.761810 0.857361 0.467377
0.908966 0.847717 0.455353
0.000000 0.000000 0.688690
0.131653 0.000000 0.688385
0.263550 0.000000 0.687592
0.396149 0.000000 0.686157
0.529205 0.000000 0.683990
0.662598 0.000000 0.680969
0.796234 0.000000 0.677032
0.930145 0.000000 0.672058
0.000000 0.039856 0.688538
0.126373 0.023193 0.688538
0.261383 0.008881 0.687744
0.395142 0.000000 0.686310
0.528839 0.000000 0.684143
0.662689 0.000000 0.681122
0.796295 0.000000 0.676849
0.930115 0.000000 0.671631
0.000000 0.118469 0.688019
0.107391 0.094238 0.688995
0.254120 0.086395 0.688202
0.391815 0.070465 0.686768
0.527649 0.038666 0.684570
0.662933 0.000000 0.681519
0.796448 0.000000 0.676208
0.930054 0.000000 0.670258
0.000000 0.224976 0.686615
0.091217 0.213104 0.687744
0.232056 0.188934 0.689148
0.381958 0.181732 0.687683
0.523926 0.170227 0.685425
0.663239 0.152771 0.682281
0.796692 0.128418 0.674316
0.929779 0.087067 0.666534
0.000000 0.354828 0.683533
0.054565 0.349518 0.684631
0.210602 0.334900 0.686859
0.358337 0.313782 0.688080
0.514435 0.307404 0.685730
0.662415 0.298340 0.682434
0.796234 0.288757 0.669952
0.928772 0.271820 0.659210
0.000000 0.505341 0.677704
0.000000 0.503723 0.678711
0.183136 0.499084 0.680756
0.337067 0.489349 0.682587
0.493469 0.474518 0.681732
0.656555 0.468872 0.678192
0.792694 0.464203 0.662018
0.925720 0.450989 0.649109
0.000000 0.674713 0.667786
0.000000 0.675598 0.668579
0.123047 0.677307 0.670044
0.309265 0.678589 0.670990
0.473541 0.677246 0.669159
0.637299 0.669128 0.660583
0.781281 0.660950 0.653564
0.918243 0.649658 0.642120
0.000000 0.861603 0.652008
0.000000 0.861877 0.650543
0.000000 0.862396 0.646698
0.253693 0.862885 0.639801
0.429535 0.862671 0.629944
0.595337 0.860840 0.618835
0.759857 0.857544 0.613007
0.909363 0.846924 0.601898
0.000000 0.000000 0.792084
0.131653 0.000000 0.791809
0.263550 0.000000 0.791168
0.396149 0.000000 0.789978
0.529205 0.000000 0.788177
0.662598 0.000000 0.785675
0.796234 0.000000 0.782410
0.930145 0.000000 0.778290
0.000000 0.039856 0.791962
0.126282 0.023163 0.791901
0.261261 0.008881 0.791260
0.394958 0.000000 0.790070
0.528625 0.000000 0.788239
0.662415 0.000000 0.785736
0.796295 0.000000 0.782440
0.930115 0.000000 0.778046
0.000000 0.118500 0.791534
0.107147 0.093994 0.792145
0.253632 0.086151 0.791504
0.391083 0.070282 0.790283
0.526672 0.038513 0.788483
0.661743 0.000000 0.785950
0.796448 0.000000 0.782501
0.930054 0.000000 0.777283
0.000000 0.224976 0.790344
0.090942 0.212616 0.791077
0.230652 0.187744 0.791992
0.379822 0.180573 0.790771
0.521088 0.169128 0.788910
0.659729 0.151764 0.786346
0.796753 0.125916 0.782562
0.929810 0.085297 0.775177
0.000000 0.354828 0.787781
0.054352 0.348755 0.788483
0.208954 0.332458 0.790039
0.353882 0.309814 0.790985
0.508331 0.303497 0.789093
0.654694 0.294556 0.786438
0.796600 0.282928 0.781952
0.928894 0.268829 0.770691
0.000000 0.505341 0.782959
0.000000 0.502686 0.783630
0.181641 0.495636 0.785034
0.332184 0.482574 0.786652
0.483643 0.465027 0.786865
0.643799 0.459503 0.784058
0.794037 0.453033 0.778595
0.926056 0.445465 0.763275
0.000000 0.674713 0.774750
0.000000 0.674316 0.775330
0.122040 0.673096 0.776581
0.305084 0.670166 0.777863
0.464539 0.664764 0.777893
0.625275 0.656525 0.774750
0.784332 0.651520 0.768250
0.919006 0.644348 0.754700
0.000000 0.861603 0.761810
0.000000 0.861877 0.761322
0.000000 0.862396 0.759979
0.253693 0.862885 0.757385
0.429535 0.862671 0.753143
0.595337 0.860840 0.747528
0.758362 0.856445 0.741699
0.907959 0.848328 0.739929
0.000000 0.000000 0.888062
0.131653 0.000000 0.887848
0.263550 0.000000 0.887299
0.396149 0.000000 0.886261
0.529205 0.000000 0.884705
0.662598 0.000000 0.882568
0.796234 0.000000 0.879761
0.930145 0.000000 0.876221
0.000000 0.039856 0.887970
0.126251 0.023163 0.887878
0.261169 0.008881 0.887299
0.394836 0.000000 0.886292
0.528473 0.000000 0.884735
0.662231 0.000000 0.882568
0.796112 0.000000 0.879761
0.930115 0.000000 0.876160
0.000000 0.118469 0.887604
0.106964 0.093842 0.887939
0.253296 0.086029 0.887390
0.390594 0.070160 0.886353
0.526093 0.038422 0.884796
0.661011 0.000000 0.882629
0.795715 0.000000 0.879791
0.930054 0.000000 0.875854
0.000000 0.224976 0.886597
0.090759 0.212311 0.887024
0.229736 0.186981 0.887482
0.378479 0.179840 0.886444
0.519318 0.168427 0.884857
0.657501 0.151154 0.882660
0.794556 0.125061 0.879791
0.929810 0.083344 0.875000
0.000000 0.354828 0.884369
0.054199 0.348297 0.884796
0.207886 0.330902 0.885681
0.351044 0.307251 0.886200
0.504395 0.300995 0.884583
0.649750 0.292114 0.882324
0.791687 0.280060 0.879395
0.928986 0.265350 0.872894
0.000000 0.505341 0.880219
0.000000 0.502045 0.880615
0.180725 0.493439 0.881439
0.329041 0.478180 0.882416
0.477112 0.458710 0.882660
0.635315 0.453247 0.880310
0.785553 0.445984 0.877258
0.926453 0.438690 0.868500
0.000000 0.674713 0.873199
0.000000 0.673462 0.873535
0.121338 0.670197 0.874268
0.302124 0.664276 0.875061
0.457977 0.655701 0.875244
0.615082 0.645874 0.873779
0.774261 0.640198 0.870575
0.920044 0.635864 0.860535
0.000000 0.861603 0.862183
0.000000 0.861877 0.862427
0.000000 0.862396 0.862946
0.253662 0.862854 0.863434
0.429504 0.862610 0.863220
0.595306 0.860779 0.861420
0.758148 0.856079 0.856720
0.906433 0.848969 0.849548
0.000000 0.000000 0.978210
0.131653 0.000000 0.978027
0.263550 0.000000 0.977539
0.396149 0.000000 0.976624
0.529205 0.000000 0.975250
0.662598 0.000000 0.973389
0.796234 0.000000 0.970917
0.930145 0.000000 0.967834
0.000000 0.039856 0.978119
0.126221 0.023132 0.977997
0.261108 0.008881 0.977509
0.394775 0.000000 0.976593
0.528381 0.000000 0.975250
0.662109 0.000000 0.973358
0.795990 0.000000 0.970886
0.930054 0.000000 0.967773
0.000000 0.118469 0.977814
0.106873 0.093719 0.977936
0.253082 0.085907 0.977417
0.390289 0.070068 0.976532
0.525665 0.038361 0.975159
0.660492 0.000000 0.973267
0.795135 0.000000 0.970764
0.929810 0.000000 0.967682
0.000000 0.224976 0.976929
0.090668 0.212097 0.977081
0.229156 0.186462 0.977173
0.377563 0.179352 0.976257
0.518097 0.167969 0.974854
0.656006 0.150726 0.972961
0.792755 0.124695 0.970428
0.929047 0.081970 0.967316
0.000000 0.354828 0.974976
0.054138 0.347961 0.975128
0.207184 0.329865 0.975433
0.349060 0.305511 0.975433
0.501709 0.299286 0.974030
0.646332 0.290436 0.972076
0.787598 0.278442 0.969513
0.927246 0.262543 0.966339
0.000000 0.505341 0.971313
0.000000 0.501587 0.971466
0.180084 0.491974 0.971741
0.326843 0.475189 0.972015
0.472504 0.454285 0.971832
0.629333 0.448853 0.969788
0.778259 0.441650 0.967163
0.923462 0.432495 0.963867
0.000000 0.674713 0.965179
0.000000 0.672913 0.965271
0.120850 0.668243 0.965485
0.300110 0.660187 0.965637
0.453369 0.649292 0.965393
0.607422 0.637848 0.964264
0.764648 0.632111 0.961609
0.916290 0.626160 0.958191
0.000000 0.861603 0.955505
0.000000 0.861145 0.955566
0.000000 0.859894 0.955658
0.251923 0.857635 0.955597
0.425140 0.854340 0.955109
0.587860 0.850281 0.953705
0.749573 0.846466 0.950867
0.904663 0.843201 0.946747
