res/luts/Spooky.CUBE
#Created by: Adobe Photoshop Export Color Lookup Plugin
TITLE "Spooky"
#LUT size
LUT_3D_SIZE 32
#data domain
DOMAIN_MIN 0.0 0.0 0.0
DOMAIN_MAX 1.0 1.0 1.0
#LUT data points
0.000000 0.000000 0.000000
0.033417 0.000000 0.000000
0.066132 0.000000 0.000000
0.098846 0.000000 0.000000
0.131653 0.000000 0.000000
0.164520 0.000000 0.000000
0.197510 0.000000 0.000000
0.230499 0.000000 0.000000
0.263550 0.000000 0.000000
0.296661 0.000000 0.000000
0.329773 0.000000 0.000000
0.362946 0.000000 0.000000
0.396149 0.000000 0.000000
0.429352 0.000000 0.000000
0.462616 0.000000 0.000000
0.495880 0.000000 0.000000
0.529205 0.000000 0.000000
0.562531 0.000000 0.000000
0.595886 0.000000 0.000000
0.629211 0.000000 0.000000
0.662598 0.000000 0.000000
0.695984 0.000000 0.000000
0.729401 0.000000 0.000000
0.762817 0.000000 0.000000
0.796234 0.000000 0.000000
0.829712 0.000000 0.000000
0.863159 0.000000 0.000000
0.896637 0.000000 0.000000
0.930145 0.000000 0.000000
0.963623 0.000000 0.000000
0.997162 0.000000 0.000000
1.000000 0.000000 0.000000
0.000000 0.004395 0.000000
0.033112 0.003510 0.000000
0.065887 0.002472 0.000000
0.098694 0.001007 0.000000
0.131531 0.000000 0.000000
0.164429 0.000000 0.000000
0.197418 0.000000 0.000000
0.230438 0.000000 0.000000
0.263489 0.000000 0.000000
0.296600 0.000000 0.000000
0.329742 0.000000 0.000000
0.362885 0.000000 0.000000
0.396088 0.000000 0.000000
0.429321 0.000000 0.000000
0.462585 0.000000 0.000000
0.495850 0.000000 0.000000
0.529175 0.000000 0.000000
0.562500 0.000000 0.000000
0.595856 0.000000 0.000000
0.629211 0.000000 0.000000
0.662598 0.000000 0.000000
0.695984 0.000000 0.000000
0.729401 0.000000 0.000000
0.762787 0.000000 0.000000
0.796204 0.000000 0.000000
0.829712 0.000000 0.000000
0.863159 0.000000 0.000000
0.896637 0.000000 0.000000
0.930145 0.000000 0.000000
0.963623 0.000000 0.000000
0.997162 0.000000 0.000000
1.000000 0.000000 0.000000
0.000000 0.013275 0.000000
0.032501 0.012360 0.000000
0.065460 0.011292 0.000000
0.098389 0.009705 0.000000
0.131317 0.007690 0.000000
0.164246 0.005127 0.000000
0.197296 0.001953 0.000000
0.230316 0.000000 0.000000
0.263367 0.000000 0.000000
0.296509 0.000000 0.000000
0.329651 0.000000 0.000000
0.362823 0.000000 0.000000
0.396027 0.000000 0.000000
0.429260 0.000000 0.000000
0.462524 0.000000 0.000000
0.495789 0.000000 0.000000
0.529144 0.000000 0.000000
0.562469 0.000000 0.000000
0.595825 0.000000 0.000000
0.629181 0.000000 0.000000
0.662567 0.000000 0.000000
0.695953 0.000000 0.000000
0.729370 0.000000 0.000000
0.762756 0.000000 0.000000
0.796204 0.000000 0.000000
0.829681 0.000000 0.000000
0.863129 0.000000 0.000000
0.896606 0.000000 0.000000
0.930115 0.000000 0.000000
0.963593 0.000000 0.000000
0.997131 0.000000 0.000000
1.000000 0.000000 0.000000
0.000000 0.025269 0.000000
0.031647 0.024384 0.000000
0.064880 0.023346 0.000000
0.097931 0.021881 0.000000
0.130981 0.019867 0.000000
0.164001 0.017303 0.000000
0.197083 0.014130 0.000000
0.230133 0.010162 0.000000
0.263214 0.005615 0.000000
0.296387 0.000397 0.000000
0.329529 0.000000 0.000000
0.362732 0.000000 0.000000
0.395935 0.000000 0.000000
0.429199 0.000000 0.000000
0.462463 0.000000 0.000000
0.495728 0.000000 0.000000
0.529083 0.000000 0.000000
0.562408 0.000000 0.000000
0.595764 0.000000 0.000000
0.629120 0.000000 0.000000
0.662506 0.000000 0.000000
0.695892 0.000000 0.000000
0.729309 0.000000 0.000000
0.762726 0.000000 0.000000
0.796143 0.000000 0.000000
0.829651 0.000000 0.000000
0.863098 0.000000 0.000000
0.896576 0.000000 0.000000
0.930084 0.000000 0.000000
0.963562 0.000000 0.000000
0.997101 0.000000 0.000000
1.000000 0.000000 0.000000
0.000000 0.039856 0.000000
0.030640 0.038971 0.000000
0.064148 0.037964 0.000000
0.097412 0.036438 0.000000
0.130615 0.034363 0.000000
0.163696 0.031708 0.000000
0.196838 0.028534 0.000000
0.229919 0.024719 0.000000
0.263031 0.020203 0.000000
0.296234 0.015015 0.000000
0.329407 0.008850 0.000000
0.362579 0.002136 0.000000
0.395844 0.000000 0.000000
0.429077 0.000000 0.000000
0.462372 0.000000 0.000000
0.495636 0.000000 0.000000
0.528992 0.000000 0.000000
0.562317 0.000000 0.000000
0.595703 0.000000 0.000000
0.629059 0.000000 0.000000
0.662445 0.000000 0.000000
0.695831 0.000000 0.000000
0.729248 0.000000 0.000000
0.762665 0.000000 0.000000
0.796112 0.000000 0.000000
0.829590 0.000000 0.000000
0.863037 0.000000 0.000000
0.896545 0.000000 0.000000
0.930054 0.000000 0.000000
0.963531 0.000000 0.000000
0.997070 0.000000 0.000000
1.000000 0.000000 0.000000
0.000000 0.056519 0.000000
0.029327 0.055817 0.000000
0.063202 0.054993 0.000000
0.096710 0.053772 0.000000
0.130096 0.052094 0.000000
0.163269 0.049957 0.000000
0.196503 0.047150 0.000000
0.229645 0.043610 0.000000
0.262787 0.039276 0.000000
0.296021 0.033936 0.000000
0.329224 0.027924 0.000000
0.362427 0.021210 0.000000
0.395691 0.013702 0.000000
0.428955 0.005157 0.000000
0.462250 0.000000 0.000000
0.495544 0.000000 0.000000
0.528900 0.000000 0.000000
0.562225 0.000000 0.000000
0.595612 0.000000 0.000000
0.628967 0.000000 0.000000
0.662384 0.000000 0.000000
0.695770 0.000000 0.000000
0.729187 0.000000 0.000000
0.762604 0.000000 0.000000
0.796051 0.000000 0.000000
0.829529 0.000000 0.000000
0.863007 0.000000 0.000000
0.896484 0.000000 0.000000
0.929993 0.000000 0.000000
0.963470 0.000000 0.000000
0.997009 0.000000 0.000000
1.000000 0.000000 0.000000
0.000000 0.075287 0.000000
0.027496 0.074707 0.000000
0.061859 0.074066 0.000000
0.095795 0.073120 0.000000
0.129333 0.071808 0.000000
0.162720 0.070068 0.000000
0.196014 0.067871 0.000000
0.229248 0.065155 0.000000
0.262451 0.061890 0.000000
0.295715 0.057861 0.000000
0.328949 0.053040 0.000000
0.362213 0.047272 0.000000
0.395477 0.040222 0.000000
0.428772 0.031677 0.000000
0.462067 0.022491 0.000000
0.495392 0.012421 0.000000
0.528748 0.001282 0.000000
0.562103 0.000000 0.000000
0.595490 0.000000 0.000000
0.628845 0.000000 0.000000
0.662262 0.000000 0.000000
0.695679 0.000000 0.000000
0.729095 0.000000 0.000000
0.762512 0.000000 0.000000
0.795959 0.000000 0.000000
0.829468 0.000000 0.000000
0.862915 0.000000 0.000000
0.896393 0.000000 0.000000
0.929932 0.000000 0.000000
0.963409 0.000000 0.000000
0.996948 0.000000 0.000000
1.000000 0.000000 0.000000
0.000000 0.095947 0.000000
0.025024 0.095520 0.000000
0.060028 0.095001 0.000000
0.094513 0.094177 0.000000
0.128357 0.093109 0.000000
0.161926 0.091766 0.000000
0.195374 0.089996 0.000000
0.228729 0.087860 0.000000
0.261993 0.085297 0.000000
0.295319 0.082245 0.000000
0.328613 0.078583 0.000000
0.361877 0.074371 0.000000
0.395203 0.069427 0.000000
0.428528 0.063477 0.000000
0.461853 0.056396 0.000000
0.495178 0.047974 0.000000
0.528564 0.037537 0.000000
0.561920 0.025482 0.000000
0.595306 0.012665 0.000000
0.628693 0.000000 0.000000
0.662109 0.000000 0.000000
0.695526 0.000000 0.000000
0.728973 0.000000 0.000000
0.762390 0.000000 0.000000
0.795837 0.000000 0.000000
0.829346 0.000000 0.000000
0.862823 0.000000 0.000000
0.896301 0.000000 0.000000
0.929840 0.000000 0.000000
0.963318 0.000000 0.000000
0.996857 0.000000 0.000000
1.000000 0.000000 0.000000
0.000000 0.118469 0.000000
0.021729 0.118103 0.000000
0.057373 0.117645 0.000000
0.092743 0.117004 0.000000
0.127045 0.116150 0.000000
0.160889 0.114990 0.000000
0.194550 0.113617 0.000000
0.227997 0.111908 0.000000
0.261383 0.109833 0.000000
0.294800 0.107391 0.000000
0.328125 0.104523 0.000000
0.361481 0.101257 0.000000
0.394806 0.097443 0.000000
0.428192 0.093079 0.000000
0.461548 0.088043 0.000000
0.494904 0.082214 0.000000
0.528290 0.075409 0.000000
0.561676 0.067505 0.000000
0.595093 0.058014 0.000000
0.628510 0.046448 0.000000
0.661926 0.031860 0.000000
0.695343 0.016113 0.000000
0.728790 0.000000 0.000000
0.762238 0.000000 0.000000
0.795685 0.000000 0.000000
0.829193 0.000000 0.000000
0.862671 0.000000 0.000000
0.896179 0.000000 0.000000
0.929718 0.000000 0.000000
0.963196 0.000000 0.000000
0.996765 0.000000 0.000000
1.000000 0.000000 0.000000
0.000000 0.142731 0.000000
0.017426 0.142426 0.000000
0.053925 0.142059 0.000000
0.090424 0.141541 0.000000
0.125305 0.140808 0.000000
0.159485 0.139832 0.000000
0.193420 0.138702 0.000000
0.227081 0.137299 0.000000
0.260590 0.135590 0.000000
0.294098 0.133636 0.000000
0.327515 0.131348 0.000000
0.360931 0.128693 0.000000
0.394318 0.125671 0.000000
0.427734 0.122223 0.000000
0.461151 0.118378 0.000000
0.494537 0.113953 0.000000
0.527954 0.108978 0.000000
0.561371 0.103302 0.000000
0.594788 0.096832 0.000000
0.628235 0.089508 0.000000
0.661682 0.080963 0.000000
0.695099 0.070953 0.000000
0.728577 0.058838 0.000000
0.762024 0.043640 0.000000
0.795502 0.024750 0.000000
0.829010 0.004608 0.000000
0.862488 0.000000 0.000000
0.895996 0.000000 0.000000
0.929535 0.000000 0.000000
0.963043 0.000000 0.000000
0.996613 0.000000 0.000000
1.000000 0.000000 0.000000
0.000000 0.168640 0.000000
0.011902 0.168365 0.000000
0.049316 0.168060 0.000000
0.087341 0.167603 0.000000
0.123016 0.166992 0.000000
0.157745 0.166199 0.000000
0.191986 0.165222 0.000000
0.225891 0.164062 0.000000
0.259583 0.162689 0.000000
0.293213 0.161041 0.000000
0.326721 0.159119 0.000000
0.360229 0.156982 0.000000
0.393707 0.154510 0.000000
0.427185 0.151733 0.000000
0.460632 0.148590 0.000000
0.494049 0.145142 0.000000
0.527527 0.141235 0.000000
0.560944 0.136841 0.000000
0.594421 0.131989 0.000000
0.627869 0.126556 0.000000
0.661346 0.120422 0.000000
0.694794 0.113617 0.000000
0.728302 0.105865 0.000000
0.761749 0.096985 0.000000
0.795227 0.086792 0.000000
0.828766 0.074707 0.000000
0.862274 0.060028 0.000000
0.895782 0.040955 0.000000
0.929321 0.017456 0.000000
0.962860 0.000000 0.000000
0.996429 0.000000 0.000000
1.000000 0.000000 0.000000
0.000000 0.196045 0.000000
0.004883 0.195801 0.000000
0.043060 0.195526 0.000000
0.083374 0.195160 0.000000
0.120178 0.194672 0.000000
0.155518 0.194000 0.000000
0.190186 0.193176 0.000000
0.224365 0.192169 0.000000
0.258270 0.190979 0.000000
0.292114 0.189606 0.000000
0.325745 0.188049 0.000000
0.359375 0.186218 0.000000
0.392914 0.184174 0.000000
0.426453 0.181854 0.000000
0.459991 0.179291 0.000000
0.493469 0.176422 0.000000
0.526978 0.173248 0.000000
0.560455 0.169769 0.000000
0.593964 0.165863 0.000000
0.627441 0.161591 0.000000
0.660950 0.156860 0.000000
0.694427 0.151642 0.000000
0.727936 0.145935 0.000000
0.761414 0.139526 0.000000
0.794922 0.132477 0.000000
0.828461 0.124512 0.000000
0.861969 0.115631 0.000000
0.895508 0.105469 0.000000
0.929077 0.093689 0.000000
0.962616 0.079773 0.000000
0.996185 0.062653 0.000000
1.000000 0.039886 0.000000
0.000000 0.224976 0.000000
0.000000 0.224762 0.000000
0.034607 0.224548 0.000000
0.078217 0.224213 0.000000
0.116547 0.223785 0.000000
0.152710 0.223236 0.000000
0.187958 0.222504 0.000000
0.222504 0.221649 0.000000
0.256683 0.220673 0.000000
0.290710 0.219482 0.000000
0.324554 0.218140 0.000000
0.358307 0.216614 0.000000
0.391968 0.214874 0.000000
0.425598 0.212921 0.000000
0.459198 0.210754 0.000000
0.492737 0.208374 0.000000
0.526306 0.205750 0.000000
0.559845 0.202820 0.000000
0.593384 0.199615 0.000000
0.626923 0.196167 0.000000
0.660431 0.192322 0.000000
0.693970 0.188171 0.000000
0.727478 0.183594 0.000000
0.761017 0.178650 0.000000
0.794525 0.173218 0.000000
0.828094 0.167267 0.000000
0.861633 0.160736 0.000000
0.895172 0.153534 0.000000
0.928741 0.145630 0.000000
0.962311 0.136810 0.000000
0.995880 0.126892 0.000000
1.000000 0.115662 0.000000
0.000000 0.255371 0.000000
0.000000 0.255188 0.000000
0.024231 0.255005 0.000000
0.071655 0.254730 0.000000
0.112000 0.254333 0.000000
0.149261 0.253845 0.000000
0.185150 0.253235 0.000000
0.220215 0.252502 0.000000
0.254761 0.251617 0.000000
0.289032 0.250610 0.000000
0.323090 0.249451 0.000000
0.356995 0.248138 0.000000
0.390778 0.246643 0.000000
0.424530 0.244965 0.000000
0.458221 0.243134 0.000000
0.491852 0.241119 0.000000
0.525482 0.238861 0.000000
0.559082 0.236450 0.000000
0.592682 0.233734 0.000000
0.626251 0.230835 0.000000
0.659821 0.227661 0.000000
0.693390 0.224182 0.000000
0.726959 0.220490 0.000000
0.760498 0.216431 0.000000
0.794067 0.212036 0.000000
0.827637 0.207306 0.000000
0.861206 0.202148 0.000000
0.894775 0.196594 0.000000
0.928375 0.190521 0.000000
0.961914 0.183960 0.000000
0.995544 0.176788 0.000000
1.000000 0.168976 0.000000
0.000000 0.287140 0.000000
0.000000 0.286987 0.000000
0.011749 0.286835 0.000000
0.062958 0.286591 0.000000
0.106232 0.286255 0.000000
0.144958 0.285828 0.000000
0.181702 0.285278 0.000000
0.217377 0.284668 0.000000
0.252350 0.283905 0.000000
0.286957 0.283051 0.000000
0.321289 0.282043 0.000000
0.355408 0.280884 0.000000
0.389374 0.279602 0.000000
0.423248 0.278168 0.000000
0.457062 0.276581 0.000000
0.490784 0.274841 0.000000
0.524506 0.272919 0.000000
0.558167 0.270813 0.000000
0.591858 0.268524 0.000000
0.625458 0.266022 0.000000
0.659088 0.263336 0.000000
0.692688 0.260437 0.000000
0.726318 0.257294 0.000000
0.759888 0.253906 0.000000
0.793488 0.250244 0.000000
0.827087 0.246338 0.000000
0.860687 0.242126 0.000000
0.894287 0.237610 0.000000
0.927887 0.232727 0.000000
0.961487 0.227509 0.000000
0.995117 0.221863 0.000000
1.000000 0.215820 0.000000
0.000000 0.320312 0.000000
0.000000 0.320160 0.000000
0.000000 0.320007 0.000000
0.051239 0.319794 0.000000
0.098938 0.319519 0.000000
0.139618 0.319122 0.000000
0.177582 0.318665 0.000000
0.213959 0.318115 0.000000
0.249481 0.317444 0.000000
0.284515 0.316681 0.000000
0.319122 0.315796 0.000000
0.353485 0.314789 0.000000
0.387665 0.313660 0.000000
0.421692 0.312408 0.000000
0.455658 0.311035 0.000000
0.489502 0.309540 0.000000
0.523346 0.307831 0.000000
0.557098 0.306030 0.000000
0.590851 0.304047 0.000000
0.624542 0.301880 0.000000
0.658234 0.299591 0.000000
0.691895 0.297089 0.000000
0.725525 0.294373 0.000000
0.759155 0.291504 0.000000
0.792786 0.288391 0.000000
0.826447 0.285065 0.000000
0.860046 0.281525 0.000000
0.893677 0.277740 0.000000
0.927338 0.273712 0.000000
0.960938 0.269379 0.000000
0.994598 0.264740 0.000000
1.000000 0.259827 0.000000
0.000000 0.354828 0.000000
0.000000 0.354706 0.000000
0.000000 0.354584 0.000000
0.034729 0.354401 0.000000
0.089722 0.354126 0.000000
0.133118 0.353790 0.000000
0.172516 0.353394 0.000000
0.209869 0.352875 0.000000
0.246033 0.352295 0.000000
0.281555 0.351624 0.000000
0.316559 0.350861 0.000000
0.351227 0.349976 0.000000
0.385620 0.348999 0.000000
0.419891 0.347900 0.000000
0.454010 0.346680 0.000000
0.488007 0.345337 0.000000
0.521942 0.343872 0.000000
0.555817 0.342285 0.000000
0.589630 0.340546 0.000000
0.623444 0.338684 0.000000
0.657196 0.336639 0.000000
0.690887 0.334473 0.000000
0.724609 0.332153 0.000000
0.758301 0.329651 0.000000
0.791962 0.326965 0.000000
0.825684 0.324127 0.000000
0.859314 0.321075 0.000000
0.893005 0.317841 0.000000
0.926666 0.314392 0.000000
0.960327 0.310730 0.000000
0.993988 0.306824 0.000000
1.000000 0.302673 0.000000
0.000000 0.390594 0.000000
0.000000 0.390503 0.000000
0.000000 0.390381 0.000000
0.014252 0.390198 0.000000
0.077667 0.389954 0.000000
0.125031 0.389679 0.000000
0.166412 0.389313 0.000000
0.204956 0.388885 0.000000
0.241974 0.388367 0.000000
0.278076 0.387756 0.000000
0.313507 0.387054 0.000000
0.348541 0.386261 0.000000
0.383240 0.385406 0.000000
0.417725 0.384430 0.000000
0.452057 0.383362 0.000000
0.486206 0.382172 0.000000
0.520294 0.380890 0.000000
0.554291 0.379486 0.000000
0.588257 0.377960 0.000000
0.622131 0.376312 0.000000
0.655975 0.374542 0.000000
0.689758 0.372620 0.000000
0.723541 0.370575 0.000000
0.757294 0.368378 0.000000
0.791016 0.366058 0.000000
0.824768 0.363556 0.000000
0.858459 0.360901 0.000000
0.892181 0.358124 0.000000
0.925903 0.355133 0.000000
0.959564 0.351959 0.000000
0.993286 0.348633 0.000000
1.000000 0.345062 0.000000
0.000000 0.427643 0.000000
0.000000 0.427551 0.000000
0.000000 0.427460 0.000000
0.000000 0.427307 0.000000
0.061584 0.427094 0.000000
0.114990 0.426849 0.000000
0.159027 0.426514 0.000000
0.199066 0.426117 0.000000
0.237122 0.425659 0.000000
0.273956 0.425110 0.000000
0.309967 0.424500 0.000000
0.345398 0.423798 0.000000
0.380463 0.423004 0.000000
0.415222 0.422150 0.000000
0.449799 0.421204 0.000000
0.484131 0.420135 0.000000
0.518402 0.419006 0.000000
0.552551 0.417755 0.000000
0.586639 0.416382 0.000000
0.620605 0.414917 0.000000
0.654541 0.413361 0.000000
0.688446 0.411652 0.000000
0.722290 0.409851 0.000000
0.756134 0.407928 0.000000
0.789917 0.405884 0.000000
0.823730 0.403687 0.000000
0.857483 0.401337 0.000000
0.891235 0.398865 0.000000
0.924988 0.396271 0.000000
0.958710 0.393494 0.000000
0.992462 0.390594 0.000000
1.000000 0.387512 0.000000
0.000000 0.465912 0.000000
0.000000 0.465820 0.000000
0.000000 0.465729 0.000000
0.000000 0.465576 0.000000
0.037933 0.465393 0.000000
0.102295 0.465179 0.000000
0.150024 0.464874 0.000000
0.192078 0.464539 0.000000
0.231384 0.464111 0.000000
0.269135 0.463623 0.000000
0.305786 0.463074 0.000000
0.341736 0.462433 0.000000
0.377228 0.461761 0.000000
0.412323 0.460968 0.000000
0.447144 0.460114 0.000000
0.481750 0.459167 0.000000
0.516205 0.458130 0.000000
0.550507 0.457031 0.000000
0.584747 0.455811 0.000000
0.618866 0.454498 0.000000
0.652924 0.453094 0.000000
0.686920 0.451599 0.000000
0.720856 0.449982 0.000000
0.754761 0.448273 0.000000
0.788635 0.446442 0.000000
0.822510 0.444489 0.000000
0.856323 0.442444 0.000000
0.890137 0.440247 0.000000
0.923950 0.437927 0.000000
0.957733 0.435486 0.000000
0.991516 0.432922 0.000000
1.000000 0.430206 0.000000
0.000000 0.505341 0.000000
0.000000 0.505249 0.000000
0.000000 0.505157 0.000000
0.000000 0.505035 0.000000
0.006348 0.504883 0.000000
0.085724 0.504669 0.000000
0.139008 0.504425 0.000000
0.183716 0.504089 0.000000
0.224609 0.503723 0.000000
0.263489 0.503265 0.000000
0.300934 0.502777 0.000000
0.337494 0.502228 0.000000
0.373444 0.501587 0.000000
0.408966 0.500885 0.000000
0.444122 0.500122 0.000000
0.478973 0.499268 0.000000
0.513672 0.498352 0.000000
0.548187 0.497345 0.000000
0.582581 0.496246 0.000000
0.616852 0.495056 0.000000
0.651062 0.493805 0.000000
0.685150 0.492462 0.000000
0.719238 0.491028 0.000000
0.753204 0.489471 0.000000
0.787170 0.487823 0.000000
0.821136 0.486084 0.000000
0.855011 0.484253 0.000000
0.888885 0.482300 0.000000
0.922760 0.480225 0.000000
0.956604 0.478058 0.000000
0.990448 0.475769 0.000000
1.000000 0.473358 0.000000
0.000000 0.546021 0.000000
0.000000 0.545929 0.000000
0.000000 0.545868 0.000000
0.000000 0.545746 0.000000
0.000000 0.545593 0.000000
0.062653 0.545410 0.000000
0.125275 0.545166 0.000000
0.173676 0.544891 0.000000
0.216675 0.544525 0.000000
0.256866 0.544128 0.000000
0.295288 0.543701 0.000000
0.332611 0.543182 0.000000
0.369110 0.542603 0.000000
0.405060 0.541962 0.000000
0.440613 0.541260 0.000000
0.475800 0.540497 0.000000
0.510773 0.539673 0.000000
0.545502 0.538757 0.000000
0.580109 0.537781 0.000000
0.614532 0.536713 0.000000
0.648895 0.535583 0.000000
0.683136 0.534363 0.000000
0.717346 0.533051 0.000000
0.751434 0.531677 0.000000
0.785492 0.530182 0.000000
0.819550 0.528625 0.000000
0.853516 0.526978 0.000000
0.887482 0.525208 0.000000
0.921417 0.523376 0.000000
0.955292 0.521423 0.000000
0.989197 0.519379 0.000000
1.000000 0.517212 0.000000
0.000000 0.587769 0.000000
0.000000 0.587708 0.000000
0.000000 0.587646 0.000000
0.000000 0.587555 0.000000
0.000000 0.587402 0.000000
0.026245 0.587250 0.000000
0.107727 0.587006 0.000000
0.161499 0.586761 0.000000
0.207214 0.586456 0.000000
0.249115 0.586090 0.000000
0.288727 0.585693 0.000000
0.326904 0.585236 0.000000
0.364136 0.584686 0.000000
0.400635 0.584106 0.000000
0.436615 0.583496 0.000000
0.472168 0.582794 0.000000
0.507446 0.582031 0.000000
0.542450 0.581207 0.000000
0.577301 0.580322 0.000000
0.611938 0.579346 0.000000
0.646454 0.578308 0.000000
0.680878 0.577209 0.000000
0.715210 0.576019 0.000000
0.749420 0.574768 0.000000
0.783600 0.573425 0.000000
0.817749 0.572021 0.000000
0.851807 0.570526 0.000000
0.885864 0.568939 0.000000
0.919861 0.567261 0.000000
0.953827 0.565521 0.000000
0.987793 0.563660 0.000000
1.000000 0.561737 0.000000
0.000000 0.630707 0.000000
0.000000 0.630676 0.000000
0.000000 0.630615 0.000000
0.000000 0.630493 0.000000
0.000000 0.630371 0.000000
0.000000 0.630219 0.000000
0.084076 0.630005 0.000000
0.146484 0.629761 0.000000
0.195953 0.629486 0.000000
0.240051 0.629181 0.000000
0.281128 0.628784 0.000000
0.320404 0.628387 0.000000
0.358429 0.627899 0.000000
0.395569 0.627380 0.000000
0.432068 0.626801 0.000000
0.468018 0.626160 0.000000
0.503662 0.625458 0.000000
0.539001 0.624695 0.000000
0.574097 0.623901 0.000000
0.608978 0.623016 0.000000
0.643707 0.622070 0.000000
0.678284 0.621063 0.000000
0.712769 0.619995 0.000000
0.747162 0.618866 0.000000
0.781433 0.617645 0.000000
0.815704 0.616333 0.000000
0.849884 0.614990 0.000000
0.884033 0.613556 0.000000
0.918121 0.612030 0.000000
0.952179 0.610443 0.000000
0.986237 0.608765 0.000000
1.000000 0.606995 0.000000
0.000000 0.674713 0.000000
0.000000 0.674683 0.000000
0.000000 0.674622 0.000000
0.000000 0.674530 0.000000
0.000000 0.674408 0.000000
0.000000 0.674255 0.000000
0.048065 0.674072 0.000000
0.127563 0.673859 0.000000
0.182404 0.673615 0.000000
0.229431 0.673309 0.000000
0.272339 0.672974 0.000000
0.312897 0.672577 0.000000
0.351868 0.672150 0.000000
0.389771 0.671661 0.000000
0.426880 0.671112 0.000000
0.463348 0.670532 0.000000
0.499420 0.669922 0.000000
0.535095 0.669220 0.000000
0.570496 0.668488 0.000000
0.605621 0.667664 0.000000
0.640594 0.666809 0.000000
0.675385 0.665894 0.000000
0.710052 0.664917 0.000000
0.744598 0.663879 0.000000
0.779022 0.662750 0.000000
0.813446 0.661591 0.000000
0.847717 0.660339 0.000000
0.881958 0.659027 0.000000
0.916168 0.657654 0.000000
0.950317 0.656189 0.000000
0.984436 0.654663 0.000000
1.000000 0.653046 0.000000
0.000000 0.719879 0.000000
0.000000 0.719818 0.000000
0.000000 0.719757 0.000000
0.000000 0.719696 0.000000
0.000000 0.719574 0.000000
0.000000 0.719452 0.000000
0.000000 0.719269 0.000000
0.102539 0.719086 0.000000
0.165924 0.718842 0.000000
0.216858 0.718567 0.000000
0.262115 0.718231 0.000000
0.304230 0.717896 0.000000
0.344391 0.717499 0.000000
0.383179 0.717041 0.000000
0.420990 0.716553 0.000000
0.458038 0.716034 0.000000
0.494598 0.715454 0.000000
0.530670 0.714813 0.000000
0.566437 0.714111 0.000000
0.601868 0.713379 0.000000
0.637085 0.712585 0.000000
0.672119 0.711761 0.000000
0.707001 0.710846 0.000000
0.741730 0.709900 0.000000
0.776337 0.708893 0.000000
0.810883 0.707794 0.000000
0.845306 0.706665 0.000000
0.879669 0.705475 0.000000
0.914001 0.704193 0.000000
0.948212 0.702881 0.000000
0.982452 0.701477 0.000000
1.000000 0.700012 0.000000
0.000000 0.766052 0.000000
0.000000 0.766022 0.000000
0.000000 0.765961 0.000000
0.000000 0.765900 0.000000
0.000000 0.765808 0.000000
0.000000 0.765686 0.000000
0.000000 0.765533 0.000000
0.065704 0.765350 0.000000
0.145325 0.765106 0.000000
0.201813 0.764862 0.000000
0.250153 0.764557 0.000000
0.294281 0.764252 0.000000
0.335846 0.763885 0.000000
0.375702 0.763458 0.000000
0.414337 0.763000 0.000000
0.452087 0.762512 0.000000
0.489166 0.761993 0.000000
0.525726 0.761414 0.000000
0.561859 0.760773 0.000000
0.597656 0.760101 0.000000
0.633179 0.759369 0.000000
0.668457 0.758606 0.000000
0.703583 0.757751 0.000000
0.738495 0.756897 0.000000
0.773285 0.755951 0.000000
0.808014 0.754974 0.000000
0.842590 0.753906 0.000000
0.877106 0.752808 0.000000
0.911560 0.751648 0.000000
0.945892 0.750427 0.000000
0.980255 0.749146 0.000000
1.000000 0.747803 0.000000
0.000000 0.813324 0.000000
0.000000 0.813263 0.000000
0.000000 0.813232 0.000000
0.000000 0.813171 0.000000
0.000000 0.813080 0.000000
0.000000 0.812958 0.000000
0.000000 0.812805 0.000000
0.000641 0.812653 0.000000
0.118286 0.812439 0.000000
0.183594 0.812195 0.000000
0.236115 0.811920 0.000000
0.282776 0.811615 0.000000
0.326050 0.811279 0.000000
0.367188 0.810913 0.000000
0.406830 0.810486 0.000000
0.445312 0.810028 0.000000
0.483063 0.809540 0.000000
0.520142 0.809021 0.000000
