res/luts/Spooky.CUBE
#Created by: Adobe Photoshop Export Color Lookup Plugin
TITLE "Spooky"
#LUT size
LUT_3D_SIZE 5
#data domain
#LUT data points
DOMAIN_MIN 0.000000 0.000000 0.000000
DOMAIN_MAX 0.903226 0.903226 0.903226
0.000000 0.000000 0.000000
0.230499 0.000000 0.000000
0.462616 0.000000 0.000000
0.695984 0.000000 0.000000
0.930145 0.000000 0.000000
0.000000 0.095947 0.000000
0.228729 0.087860 0.000000
0.461853 0.056396 0.000000
0.695526 0.000000 0.000000
0.929840 0.000000 0.000000
0.000000 0.287140 0.000000
0.217377 0.284668 0.000000
0.457062 0.276581 0.000000
0.692688 0.260437 0.000000
0.927887 0.232727 0.000000
0.000000 0.546021 0.000000
0.173676 0.544891 0.000000
0.440613 0.541260 0.000000
0.683136 0.534363 0.000000
0.921417 0.523376 0.000000
0.000000 0.861603 0.000000
0.000000 0.860992 0.000000
0.398285 0.859009 0.000000
0.659851 0.855225 0.000000
0.905823 0.849304 0.000000
0.000000 0.000000 0.410370
0.230499 0.000000 0.408752
0.462616 0.000000 0.403564
0.695984 0.000000 0.393494
0.930145 0.000000 0.377197
0.000000 0.095947 0.409454
0.224823 0.068207 0.410065
0.463593 0.026123 0.403259
0.696320 0.000000 0.390350
0.930084 0.000000 0.372833
0.000000 0.287140 0.403900
0.193115 0.275360 0.408783
0.463196 0.259003 0.396973
0.696625 0.231384 0.373962
0.929352 0.189392 0.349121
0.000000 0.546021 0.384583
0.128632 0.549255 0.376343
0.429260 0.548676 0.349792
0.687439 0.530792 0.348358
0.923462 0.507385 0.312561
0.000000 0.861603 0.333374
0.000000 0.862244 0.313080
0.357300 0.862244 0.263855
0.650696 0.858246 0.245697
0.907806 0.848633 0.212982
0.000000 0.000000 0.633331
0.230499 0.000000 0.632416
0.462616 0.000000 0.629425
0.695984 0.000000 0.623749
0.930145 0.000000 0.614746
0.000000 0.095947 0.632812
0.222565 0.067169 0.632996
0.461090 0.024780 0.629974
0.696350 0.000000 0.623474
0.930084 0.000000 0.613068
0.000000 0.287140 0.629608
0.185516 0.265198 0.632904
0.450073 0.242126 0.631653
0.697205 0.223511 0.620941
0.929413 0.186646 0.603668
0.000000 0.546021 0.618805
0.127472 0.545502 0.621613
0.414551 0.537292 0.623077
0.688446 0.524841 0.607452
0.924164 0.501678 0.584747
0.000000 0.861603 0.592163
0.000000 0.862244 0.586273
0.344543 0.862915 0.568207
0.639435 0.860077 0.547089
0.909241 0.847290 0.531158
0.000000 0.000000 0.816711
0.230499 0.000000 0.816040
0.462616 0.000000 0.813904
0.695984 0.000000 0.809845
0.930145 0.000000 0.803467
0.000000 0.095947 0.816345
0.221924 0.066895 0.816254
0.459900 0.024658 0.814087
0.695465 0.000000 0.809998
0.930084 0.000000 0.802887
0.000000 0.287140 0.814056
0.183228 0.262177 0.815674
0.442810 0.237854 0.814667
0.691772 0.217590 0.810455
0.929474 0.183044 0.799255
0.000000 0.546021 0.806335
0.125763 0.539795 0.807800
0.400696 0.519806 0.809967
0.676331 0.502106 0.806763
0.924927 0.491394 0.788208
0.000000 0.861603 0.787689
0.000000 0.862244 0.786865
0.344543 0.862915 0.783478
0.636536 0.860016 0.775848
0.907257 0.848877 0.770630
0.000000 0.000000 0.978210
0.230499 0.000000 0.977692
0.462616 0.000000 0.976013
0.695984 0.000000 0.972809
0.930145 0.000000 0.967834
0.000000 0.095947 0.977905
0.221649 0.066772 0.977600
0.459381 0.024597 0.975922
0.694672 0.000000 0.972717
0.929901 0.000000 0.967712
0.000000 0.287140 0.976105
0.182190 0.260803 0.976501
0.439484 0.235901 0.975311
0.686768 0.215759 0.972046
0.928345 0.179474 0.966919
0.000000 0.546021 0.970062
0.124969 0.537262 0.970367
0.393951 0.511322 0.970734
0.662354 0.491455 0.968231
0.922058 0.478302 0.962830
0.000000 0.861603 0.955505
0.000000 0.860291 0.955627
0.341614 0.856110 0.955444
0.628418 0.849274 0.953156
0.904663 0.843201 0.946747
